src/content/images/portfolio/DSCF8338.xmp
<x:xmpmeta xmlns:x="adobe:ns:meta/" x:xmptk="Adobe XMP Core 7.0-c000 1.000000, 0000/00/00-00:00:00        ">
 <rdf:RDF xmlns:rdf="http://www.w3.org/1999/02/22-rdf-syntax-ns#">
  <rdf:Description rdf:about=""
    xmlns:xmp="http://ns.adobe.com/xap/1.0/"
    xmlns:aux="http://ns.adobe.com/exif/1.0/aux/"
    xmlns:tiff="http://ns.adobe.com/tiff/1.0/"
    xmlns:exif="http://ns.adobe.com/exif/1.0/"
    xmlns:exifEX="http://cipa.jp/exif/1.0/"
    xmlns:photoshop="http://ns.adobe.com/photoshop/1.0/"
    xmlns:xmpMM="http://ns.adobe.com/xap/1.0/mm/"
    xmlns:stEvt="http://ns.adobe.com/xap/1.0/sType/ResourceEvent#"
    xmlns:dc="http://purl.org/dc/elements/1.1/"
    xmlns:crd="http://ns.adobe.com/camera-raw-defaults/1.0/"
    xmlns:crs="http://ns.adobe.com/camera-raw-settings/1.0/"
   xmp:CreatorTool="Digital Camera X-T30 Ver1.40"
   xmp:ModifyDate="2022-03-25T14:04:16.000Z"
   xmp:CreateDate="2022-03-25T14:04:16.000Z"
   xmp:MetadataDate="2022-04-03T20:52:01+01:00"
   aux:FujiRatingAlreadyApplied="True"
   aux:SerialNumber="9AQ21028"
   aux:LensInfo="2700/100 2700/100 280/100 280/100"
   aux:Lens="XF27mmF2.8"
   aux:LensSerialNumber="53A10946"
   tiff:Make="FUJIFILM"
   tiff:Model="X-T30"
   tiff:Orientation="1"
   exif:ExifVersion="0230"
   exif:ExposureTime="1/250"
   exif:ShutterSpeedValue="7965784/1000000"
   exif:FNumber="56/10"
   exif:ApertureValue="4970854/1000000"
   exif:ExposureProgram="1"
   exif:SensitivityType="1"
   exif:BrightnessValue="925/100"
   exif:ExposureBiasValue="0/100"
   exif:MaxApertureValue="300/100"
   exif:MeteringMode="5"
   exif:LightSource="0"
   exif:FocalLength="2700/100"
   exif:SensingMethod="2"
   exif:FileSource="3"
   exif:SceneType="1"
   exif:FocalLengthIn35mmFilm="41"
   exif:CustomRendered="0"
   exif:ExposureMode="1"
   exif:WhiteBalance="0"
   exif:SceneCaptureType="0"
   exif:Sharpness="0"
   exif:SubjectDistanceRange="0"
   exif:FocalPlaneXResolution="87010286/32768"
   exif:FocalPlaneYResolution="87010286/32768"
   exif:FocalPlaneResolutionUnit="3"
   exif:LensMake="FUJIFILM"
   exif:DateTimeOriginal="2022-03-25T14:04:16Z"
   exifEX:LensModel="XF27mmF2.8"
   exifEX:LensMake="FUJIFILM"
   photoshop:DateCreated="2022-03-25T14:04:16.000Z"
   photoshop:SidecarForExtension="RAF"
   photoshop:EmbeddedXMPDigest="00000000000000000000000000000000"
   xmpMM:DocumentID="166459497418CA03A7A477735E51A145"
   xmpMM:OriginalDocumentID="166459497418CA03A7A477735E51A145"
   xmpMM:InstanceID="xmp.iid:5cbc8efd-7c9f-46fd-9edb-9ec8871f17a1"
   dc:format="image/x-fuji-raw"
   crd:CameraProfile="Camera ASTIA/Soft"
   crd:LookName=""
   crs:Version="14.2"
   crs:ProcessVersion="11.0"
   crs:WhiteBalance="Custom"
   crs:Temperature="5150"
   crs:Tint="+21"
   crs:Exposure2012="+0.18"
   crs:Contrast2012="0"
   crs:Highlights2012="0"
   crs:Shadows2012="+20"
   crs:Whites2012="+28"
   crs:Blacks2012="-16"
   crs:Texture="0"
   crs:Clarity2012="-15"
   crs:Dehaze="+13"
   crs:Vibrance="+50"
   crs:Saturation="0"
   crs:ParametricShadows="0"
   crs:ParametricDarks="0"
   crs:ParametricLights="0"
   crs:ParametricHighlights="0"
   crs:ParametricShadowSplit="25"
   crs:ParametricMidtoneSplit="50"
   crs:ParametricHighlightSplit="75"
   crs:Sharpness="40"
   crs:SharpenRadius="+1.0"
   crs:SharpenDetail="25"
   crs:SharpenEdgeMasking="0"
   crs:LuminanceSmoothing="0"
   crs:ColorNoiseReduction="25"
   crs:ColorNoiseReductionDetail="50"
   crs:ColorNoiseReductionSmoothness="50"
   crs:HueAdjustmentRed="0"
   crs:HueAdjustmentOrange="0"
   crs:HueAdjustmentYellow="0"
   crs:HueAdjustmentGreen="0"
   crs:HueAdjustmentAqua="0"
   crs:HueAdjustmentBlue="0"
   crs:HueAdjustmentPurple="0"
   crs:HueAdjustmentMagenta="0"
   crs:SaturationAdjustmentRed="0"
   crs:SaturationAdjustmentOrange="-16"
   crs:SaturationAdjustmentYellow="-5"
   crs:SaturationAdjustmentGreen="0"
   crs:SaturationAdjustmentAqua="0"
   crs:SaturationAdjustmentBlue="0"
   crs:SaturationAdjustmentPurple="0"
   crs:SaturationAdjustmentMagenta="0"
   crs:LuminanceAdjustmentRed="0"
   crs:LuminanceAdjustmentOrange="0"
   crs:LuminanceAdjustmentYellow="0"
   crs:LuminanceAdjustmentGreen="0"
   crs:LuminanceAdjustmentAqua="0"
   crs:LuminanceAdjustmentBlue="0"
   crs:LuminanceAdjustmentPurple="0"
   crs:LuminanceAdjustmentMagenta="0"
   crs:SplitToningShadowHue="0"
   crs:SplitToningShadowSaturation="0"
   crs:SplitToningHighlightHue="0"
   crs:SplitToningHighlightSaturation="0"
   crs:SplitToningBalance="0"
   crs:ColorGradeMidtoneHue="0"
   crs:ColorGradeMidtoneSat="0"
   crs:ColorGradeShadowLum="0"
   crs:ColorGradeMidtoneLum="0"
   crs:ColorGradeHighlightLum="0"
   crs:ColorGradeBlending="50"
   crs:ColorGradeGlobalHue="0"
   crs:ColorGradeGlobalSat="0"
   crs:ColorGradeGlobalLum="0"
   crs:AutoLateralCA="1"
   crs:LensProfileEnable="0"
   crs:LensManualDistortionAmount="0"
   crs:VignetteAmount="0"
   crs:DefringePurpleAmount="0"
   crs:DefringePurpleHueLo="30"
   crs:DefringePurpleHueHi="70"
   crs:DefringeGreenAmount="0"
   crs:DefringeGreenHueLo="40"
   crs:DefringeGreenHueHi="60"
   crs:PerspectiveUpright="0"
   crs:PerspectiveVertical="0"
   crs:PerspectiveHorizontal="0"
   crs:PerspectiveRotate="0.0"
   crs:PerspectiveAspect="0"
   crs:PerspectiveScale="100"
   crs:PerspectiveX="0.00"
   crs:PerspectiveY="0.00"
   crs:GrainAmount="0"
   crs:PostCropVignetteAmount="0"
   crs:ShadowTint="0"
   crs:RedHue="0"
   crs:RedSaturation="0"
   crs:GreenHue="0"
   crs:GreenSaturation="0"
   crs:BlueHue="0"
   crs:BlueSaturation="0"
   crs:ConvertToGrayscale="False"
   crs:OverrideLookVignette="False"
   crs:ToneCurveName2012="Custom"
   crs:CameraProfile="Camera CLASSIC CHROME"
   crs:CameraProfileDigest="35D8E8FFFEC75E3913E62E59084D0832"
   crs:HasSettings="True"
   crs:HasCrop="False"
   crs:AlreadyApplied="False"
   crs:RawFileName="DSCF8338.RAF">
   <exif:Flash
    exif:Fired="False"
    exif:Return="0"
    exif:Mode="0"
    exif:Function="False"
    exif:RedEyeMode="False"/>
   <exif:ISOSpeedRatings>
    <rdf:Seq>
     <rdf:li>80</rdf:li>
    </rdf:Seq>
   </exif:ISOSpeedRatings>
   <xmpMM:History>
    <rdf:Seq>
     <rdf:li
      stEvt:action="edited"
      stEvt:when="2022-04-01T19:19:32.157Z"/>
     <rdf:li
      stEvt:action="saved"
      stEvt:instanceID="xmp.iid:5cbc8efd-7c9f-46fd-9edb-9ec8871f17a1"
      stEvt:when="2022-04-03T20:52:01+01:00"
      stEvt:softwareAgent="Adobe Lightroom 5.0 (Macintosh)"
      stEvt:changed="/metadata"/>
    </rdf:Seq>
   </xmpMM:History>
   <crs:ToneCurvePV2012>
    <rdf:Seq>
     <rdf:li>0, 2</rdf:li>
     <rdf:li>23, 14</rdf:li>
     <rdf:li>135, 127</rdf:li>
     <rdf:li>188, 192</rdf:li>
     <rdf:li>255, 255</rdf:li>
    </rdf:Seq>
   </crs:ToneCurvePV2012>
   <crs:ToneCurvePV2012Red>
    <rdf:Seq>
     <rdf:li>0, 0</rdf:li>
     <rdf:li>255, 255</rdf:li>
    </rdf:Seq>
   </crs:ToneCurvePV2012Red>
   <crs:ToneCurvePV2012Green>
    <rdf:Seq>
     <rdf:li>0, 0</rdf:li>
     <rdf:li>255, 255</rdf:li>
    </rdf:Seq>
   </crs:ToneCurvePV2012Green>
   <crs:ToneCurvePV2012Blue>
    <rdf:Seq>
     <rdf:li>0, 0</rdf:li>
     <rdf:li>255, 255</rdf:li>
    </rdf:Seq>
   </crs:ToneCurvePV2012Blue>
  </rdf:Description>
 </rdf:RDF>
</x:xmpmeta>
